assets/business-color/BusinessColor4.svg

<svg xmlns="http://www.w3.org/2000/svg" id="Layer_1" x="0" y="0" version="1.1" viewBox="0 0 256 256" xml:space="preserve"><style>.st0{fill:#fff}.st1{fill:#48386a}.st2{fill:#9feaff}</style><path d="M138.4 227.5h31.3c2.8 0 5.2-2.3 5.2-5.2V113.7c0-2.8-2.3-5.2-5.2-5.2H9.2c-2.8 0-5.2 2.3-5.2 5.2v108.6c0 2.8 2.3 5.2 5.2 5.2h129.2z" class="st0"/><path d="M252 91.1v47.2c0 2.8-2.3 5.2-5.2 5.2h-72v-29.7c0-2.8-2.3-5.2-5.2-5.2H81.2v-79c0-2.8 2.3-5.2 5.2-5.2h160.5c2.8 0 5.2 2.3 5.2 5.2v61.5z" class="st0"/><path d="M246.8 144.4h-72c-.6 0-1-.4-1-1v-29.7c0-2.3-1.9-4.2-4.2-4.2H81.2c-.6 0-1-.4-1-1V29.6c0-3.4 2.8-6.2 6.2-6.2h160.5c3.4 0 6.2 2.8 6.2 6.2V72c0 .6-.4 1-1 1s-1-.4-1-1V29.6c0-2.3-1.9-4.2-4.2-4.2H86.3c-2.3 0-4.2 1.9-4.2 4.2v77.9h87.5c3.4 0 6.2 2.8 6.2 6.2v28.7h71c2.3 0 4.2-1.9 4.2-4.2V91.1c0-.6.4-1 1-1s1 .4 1 1v47.2c0 3.4-2.8 6.1-6.2 6.1z" class="st1"/><path d="M161.6 87.3l-32.1 21.3H89.4V32.7L157.2 84z" class="st0"/><path d="M129.5 109.1H89.4c-.3 0-.5-.2-.5-.5V32.7c0-.2.1-.4.3-.4.2-.1.4-.1.5 0l67.7 51.2 4.4 3.3c.1.1.2.3.2.4s-.1.3-.2.4l-32 21.4c-.1 0-.2.1-.3.1zm-39.6-1h39.4l31.4-20.8-3.8-2.9-67-50.7v74.4z" class="st1"/><path d="M179.8 135.2v-21.4c0-2.8-2.3-5.2-5.2-5.2h-40.2l32.1-21.3 5 3.8 5-3.8 72.2 47.9h-68.9z" class="st2"/><path d="M141.9 231.5h31.3c2.8 0 5.2-2.3 5.2-5.2V117.7c0-2.8-2.3-5.2-5.2-5.2H12.7c-2.8 0-5.2 2.3-5.2 5.2v108.6c0 2.8 2.3 5.2 5.2 5.2h129.2z" class="st2"/><path d="M166.6 132v87.3H12.2V116.8h154.4v10.3z" class="st0"/><path d="M166.6 219.8H12.2c-.3 0-.5-.2-.5-.5V116.8c0-.3.2-.5.5-.5h154.3c.3 0 .5.2.5.5v10.3c0 .3-.2.5-.5.5s-.5-.2-.5-.5v-9.8H12.7v101.4H166V132c0-.3.2-.5.5-.5s.5.2.5.5v87.3c.1.2-.1.5-.4.5z" class="st1"/><path d="M169.7 228.5h-31.3c-.6 0-1-.4-1-1s.4-1 1-1h31.3c2.3 0 4.2-1.9 4.2-4.2V113.7c0-2.3-1.9-4.2-4.2-4.2H9.2c-2.3 0-4.2 1.9-4.2 4.2v108.6c0 2.3 1.9 4.2 4.2 4.2h123.5c.6 0 1 .4 1 1s-.4 1-1 1H9.2c-3.4 0-6.2-2.8-6.2-6.2V113.7c0-3.4 2.8-6.2 6.2-6.2h160.5c3.4 0 6.2 2.8 6.2 6.2v108.6c-.1 3.4-2.8 6.2-6.2 6.2z" class="st1"/><path d="M48.5 159.7H22.6v-32.6h55.3v32.6h-20z" class="st0"/><path d="M77.9 160.7h-20c-.6 0-1-.4-1-1s.4-1 1-1h19v-30.6H23.6v30.6h24.9c.6 0 1 .4 1 1s-.4 1-1 1H22.6c-.6 0-1-.4-1-1v-32.6c0-.6.4-1 1-1h55.3c.6 0 1 .4 1 1v32.6c0 .6-.4 1-1 1z" class="st1"/><path d="M54 160.7h-1.1c-.6 0-1-.4-1-1s.4-1 1-1H54c.6 0 1 .4 1 1s-.4 1-1 1z" class="st1"/><path d="M40.1 121.9h24.3V169H40.1z" class="st2" transform="rotate(90 52.232 145.423)"/><path d="M73.8 156.1H26.7c-.3 0-.5-.2-.5-.5v-24.3c0-.3.2-.5.5-.5h47.1c.3 0 .5.2.5.5v24.3c0 .3-.2.5-.5.5zm-46.6-1h46.1v-23.3H27.2v23.3zM156.3 178.3h-27c-.3 0-.5-.2-.5-.5s.2-.5.5-.5h27c.3 0 .5.2.5.5s-.3.5-.5.5zM125.3 178.3H95.4c-.3 0-.5-.2-.5-.5s.2-.5.5-.5h29.9c.3 0 .5.2.5.5s-.2.5-.5.5zM146 188.3H95.4c-.3 0-.5-.2-.5-.5s.2-.5.5-.5H146c.3 0 .5.2.5.5s-.3.5-.5.5zM135.6 198.4H95.4c-.3 0-.5-.2-.5-.5s.2-.5.5-.5h40.2c.3 0 .5.2.5.5s-.2.5-.5.5zM125.3 208.4H95.4c-.3 0-.5-.2-.5-.5s.2-.5.5-.5h29.9c.3 0 .5.2.5.5s-.2.5-.5.5zM252 87.3c-.6 0-1-.4-1-1v-4.8c0-.6.4-1 1-1s1 .4 1 1v4.8c0 .6-.4 1-1 1z" class="st1"/><path d="M151.2 32.7h97.6L181 84l-4.4 3.3-5 3.8-5-3.8-4.4-3.3-67.8-51.3h42.4z" class="st2"/><g><path d="M243.8 135.7h-68.9c-.3 0-.5-.2-.5-.5v-21.4c0-2.6-2.1-4.7-4.7-4.7h-40.2c-.2 0-.4-.1-.5-.4-.1-.2 0-.4.2-.6l32.1-21.3c.2-.1.4-.1.6 0l4.7 3.6 4.7-3.6c.2-.1.4-.1.6 0l72.2 47.9c.2.1.3.3.2.6-.1.2-.3.4-.5.4zm-68.5-1h66.8l-70.5-46.8-4.7 3.6c-.2.1-.4.1-.6 0l-4.7-3.6-30.4 20.2h38.5c3.1 0 5.7 2.5 5.7 5.7v20.9z" class="st1"/></g><g><path d="M142.9 33.2h-3.5c-.3 0-.5-.2-.5-.5s.2-.5.5-.5h3.5c.3 0 .5.2.5.5s-.2.5-.5.5z" class="st1"/></g><g><path d="M243.8 135.7c-.1 0-.2 0-.3-.1l-72.2-47.9c-.1-.1-.2-.2-.2-.4s.1-.3.2-.4l72.2-54.5c.2-.1.4-.1.5 0 .2.1.3.3.3.4v102.4c0 .2-.1.4-.3.4-.1.1-.2.1-.2.1zm-71.3-48.4l70.8 47V33.7l-70.8 53.6z" class="st1"/></g><g><path d="M166.6 91.6c-.1 0-.2 0-.3-.1L89.1 33.1c-.2-.1-.2-.4-.2-.6s.3-.3.5-.3h42.3c.3 0 .5.2.5.5s-.2.5-.5.5H90.9l75.7 57.2 75.7-57.2h-96.1c-.3 0-.5-.2-.5-.5s.2-.5.5-.5h97.6c.2 0 .4.1.5.3.1.2 0 .4-.2.6l-77.2 58.3c-.1.1-.2.2-.3.2z" class="st1"/></g></svg>

<svg xmlns="http://www.w3.org/2000/svg" id="Layer_1" x="0" y="0" enable-background="new 0 0 256 256" version="1.1" viewBox="0 0 256 256" xml:space="preserve"><style>.st0{fill:#FFFFFF;}
	.st1{fill:#48386A;}
	.st2{fill:#9FEAFF;}</style><path d="M138.4 227.5h31.3c2.8 0 5.2-2.3 5.2-5.2V113.7c0-2.8-2.3-5.2-5.2-5.2H9.2c-2.8 0-5.2 2.3-5.2 5.2v108.6c0 2.8 2.3 5.2 5.2 5.2h129.2z" class="st0"/><path d="M252 91.1v47.2c0 2.8-2.3 5.2-5.2 5.2h-72v-29.7c0-2.8-2.3-5.2-5.2-5.2H81.2v-79c0-2.8 2.3-5.2 5.2-5.2h160.5c2.8 0 5.2 2.3 5.2 5.2v61.5z" class="st0"/><path d="M246.8 144.4h-72c-.6 0-1-.4-1-1v-29.7c0-2.3-1.9-4.2-4.2-4.2H81.2c-.6 0-1-.4-1-1V29.6c0-3.4 2.8-6.2 6.2-6.2h160.5c3.4 0 6.2 2.8 6.2 6.2V72c0 .6-.4 1-1 1s-1-.4-1-1V29.6c0-2.3-1.9-4.2-4.2-4.2H86.3c-2.3 0-4.2 1.9-4.2 4.2v77.9h87.5c3.4 0 6.2 2.8 6.2 6.2v28.7h71c2.3 0 4.2-1.9 4.2-4.2V91.1c0-.6.4-1 1-1s1 .4 1 1v47.2c0 3.4-2.8 6.1-6.2 6.1z" class="st1"/><path d="M161.6 87.3 129.5 108.6 89.4 108.6 89.4 32.7 157.2 84z" class="st0"/><path d="M129.5 109.1H89.4c-.3 0-.5-.2-.5-.5V32.7c0-.2.1-.4.3-.4.2-.1.4-.1.5 0l67.7 51.2 4.4 3.3c.1.1.2.3.2.4s-.1.3-.2.4l-32 21.4c-.1 0-.2.1-.3.1zm-39.6-1h39.4l31.4-20.8-3.8-2.9-67-50.7v74.4z" class="st1"/><path d="M179.8 135.2v-21.4c0-2.8-2.3-5.2-5.2-5.2h-40.2l32.1-21.3 5 3.8 5-3.8 72.2 47.9h-68.9z" class="st2"/><path d="M141.9 231.5h31.3c2.8 0 5.2-2.3 5.2-5.2V117.7c0-2.8-2.3-5.2-5.2-5.2H12.7c-2.8 0-5.2 2.3-5.2 5.2v108.6c0 2.8 2.3 5.2 5.2 5.2h129.2z" class="st2"/><path d="M166.6 132 166.6 219.3 12.2 219.3 12.2 116.8 166.6 116.8 166.6 127.1z" class="st0"/><path d="M166.6 219.8H12.2c-.3 0-.5-.2-.5-.5V116.8c0-.3.2-.5.5-.5h154.3c.3 0 .5.2.5.5v10.3c0 .3-.2.5-.5.5s-.5-.2-.5-.5v-9.8H12.7v101.4H166V132c0-.3.2-.5.5-.5s.5.2.5.5v87.3c.1.2-.1.5-.4.5z" class="st1"/><path d="M169.7 228.5h-31.3c-.6 0-1-.4-1-1s.4-1 1-1h31.3c2.3 0 4.2-1.9 4.2-4.2V113.7c0-2.3-1.9-4.2-4.2-4.2H9.2c-2.3 0-4.2 1.9-4.2 4.2v108.6c0 2.3 1.9 4.2 4.2 4.2h123.5c.6 0 1 .4 1 1s-.4 1-1 1H9.2c-3.4 0-6.2-2.8-6.2-6.2V113.7c0-3.4 2.8-6.2 6.2-6.2h160.5c3.4 0 6.2 2.8 6.2 6.2v108.6c-.1 3.4-2.8 6.2-6.2 6.2z" class="st1"/><path d="M48.5 159.7 22.6 159.7 22.6 127.1 77.9 127.1 77.9 159.7 57.9 159.7z" class="st0"/><path d="M77.9 160.7h-20c-.6 0-1-.4-1-1s.4-1 1-1h19v-30.6H23.6v30.6h24.9c.6 0 1 .4 1 1s-.4 1-1 1H22.6c-.6 0-1-.4-1-1v-32.6c0-.6.4-1 1-1h55.3c.6 0 1 .4 1 1v32.6c0 .6-.4 1-1 1z" class="st1"/><path d="M54 160.7h-1.1c-.6 0-1-.4-1-1s.4-1 1-1H54c.6 0 1 .4 1 1s-.4 1-1 1z" class="st1"/><path d="M40.1 121.9H64.4V169H40.1z" class="st2" transform="rotate(90 52.232 145.423)"/><path d="M73.8 156.1H26.7c-.3 0-.5-.2-.5-.5v-24.3c0-.3.2-.5.5-.5h47.1c.3 0 .5.2.5.5v24.3c0 .3-.2.5-.5.5zm-46.6-1h46.1v-23.3H27.2v23.3zM156.3 178.3h-27c-.3 0-.5-.2-.5-.5s.2-.5.5-.5h27c.3 0 .5.2.5.5s-.3.5-.5.5zM125.3 178.3H95.4c-.3 0-.5-.2-.5-.5s.2-.5.5-.5h29.9c.3 0 .5.2.5.5s-.2.5-.5.5zM146 188.3H95.4c-.3 0-.5-.2-.5-.5s.2-.5.5-.5H146c.3 0 .5.2.5.5s-.3.5-.5.5zM135.6 198.4H95.4c-.3 0-.5-.2-.5-.5s.2-.5.5-.5h40.2c.3 0 .5.2.5.5s-.2.5-.5.5zM125.3 208.4H95.4c-.3 0-.5-.2-.5-.5s.2-.5.5-.5h29.9c.3 0 .5.2.5.5s-.2.5-.5.5zM252 87.3c-.6 0-1-.4-1-1v-4.8c0-.6.4-1 1-1s1 .4 1 1v4.8c0 .6-.4 1-1 1z" class="st1"/><path d="M151.2 32.7 248.8 32.7 181 84 176.6 87.3 171.6 91.1 166.6 87.3 162.2 84 94.4 32.7 136.8 32.7z" class="st2"/><g><path d="M243.8 135.7h-68.9c-.3 0-.5-.2-.5-.5v-21.4c0-2.6-2.1-4.7-4.7-4.7h-40.2c-.2 0-.4-.1-.5-.4-.1-.2 0-.4.2-.6l32.1-21.3c.2-.1.4-.1.6 0l4.7 3.6 4.7-3.6c.2-.1.4-.1.6 0l72.2 47.9c.2.1.3.3.2.6-.1.2-.3.4-.5.4zm-68.5-1h66.8l-70.5-46.8-4.7 3.6c-.2.1-.4.1-.6 0l-4.7-3.6-30.4 20.2h38.5c3.1 0 5.7 2.5 5.7 5.7v20.9z" class="st1"/></g><g><path d="M142.9 33.2h-3.5c-.3 0-.5-.2-.5-.5s.2-.5.5-.5h3.5c.3 0 .5.2.5.5s-.2.5-.5.5z" class="st1"/></g><g><path d="M243.8 135.7c-.1 0-.2 0-.3-.1l-72.2-47.9c-.1-.1-.2-.2-.2-.4s.1-.3.2-.4l72.2-54.5c.2-.1.4-.1.5 0 .2.1.3.3.3.4v102.4c0 .2-.1.4-.3.4-.1.1-.2.1-.2.1zm-71.3-48.4 70.8 47V33.7l-70.8 53.6z" class="st1"/></g><g><path d="M166.6 91.6c-.1 0-.2 0-.3-.1L89.1 33.1c-.2-.1-.2-.4-.2-.6s.3-.3.5-.3h42.3c.3 0 .5.2.5.5s-.2.5-.5.5H90.9l75.7 57.2 75.7-57.2h-96.1c-.3 0-.5-.2-.5-.5s.2-.5.5-.5h97.6c.2 0 .4.1.5.3.1.2 0 .4-.2.6l-77.2 58.3c-.1.1-.2.2-.3.2z" class="st1"/></g></svg>
